X:1
T:Title
%%score { 1 | 2 }
L:1/8
M:4/4
K:Ab
V:1 treble nm="Grand Piano"
V:2 bass 
V:1
 z4 z2[Q:1/4=100] [CA]>[DB] | [Ec]>[Ec] [Ec]>[Fd] [Ec]>[DB] [CA]>[DB] | %2
 [Ec]>[DB] [CA]>[DF] [CE]2 [EA]>[EG] | F>F F>F [Fd]>[Ec] [DB]>[DA] | [EB]6 [EA]>[EB] | %5
 [Ec]>[Ec] [Ec]>[Fd] [Ec]>[DB] [CA]>[DB] | [Ec]>[DB] [CA]>[DF] [CE]2 [EA]>[EG] | %7
 [DF]>[DA] [Fd]>[FB] A>G c>B | [CA]6 z2 | c2 c>d e2 z e | c>B A>B c3 B | A>A A>A e2 c2 | [GB]6 z2 | %13
 c>c c>d e2 c2 | [EA]>[EB] [FA]>[DF] [CE]4 | [EG]2 [GB]>[GB] [Gd]2 [DEG]2 |[M:3/4] [CEA]6 |] %17
V:2
 z4 z2 [A,,E,]>[A,,E,] | [A,,A,]>[A,,A,] [A,,A,]>[A,,A,] [A,,E,]>[A,,E,] [A,,E,]>[A,,E,] | %2
 [A,,A,]>[A,,A,] [A,,A,]>[A,,A,] [A,,A,]2 [C,A,]>[C,A,] | %3
 [D,A,D]>[D,A,D] [D,A,D]>[D,A,D] [B,,B,]>[B,,B,] [B,,B,]>[B,,B,] | [E,G,]6 [C,A,]>[B,,G,] | %5
 [A,,A,]>[A,,A,] [A,,A,]>[A,,A,] [A,,E,]>[A,,E,] [A,,E,]>[A,,E,] | %6
 [A,,A,]>[A,,A,] [A,,A,]>[A,,A,] [A,,A,]2 [C,A,]>[C,A,] | %7
 [D,A,]>[D,F,] [D,A,]>[D,D] [E,CE]>[E,B,E] [E,A,E]>[E,G,D] | [A,,A,]6 z2 | %9
 [A,EA]2 [A,EA]>[A,DA] [A,CA]2 z [A,CA] | [A,EA]>[A,DE] [A,CE]>[A,DE] [A,EA]3[K:bass] [E,DE] | %11
 [A,CE]>[A,CE] [A,CE]>[A,CE][K:treble] [A,CE]2 [A,EA]2 | [E,E]6 z2 | %13
 [A,EA]>[A,EA] [A,EA]>[A,DA] [A,CA]2[K:bass] [A,E]2 | [C,A,]>[C,A,] [D,A,]>[D,A,] [A,,A,]4 | %15
 [E,B,]2 [E,B,]>[E,B,] [E,B,]2 E,2 |[M:3/4] A,,6 |] %17

